_site/images/features/data-escrow.svg

<svg height="40" viewBox="0 0 40 40" width="40" xmlns="http://www.w3.org/2000/svg"><g fill="none" fill-rule="evenodd"><rect fill="#1c3c55" height="40" rx="7" width="40"/><path d="m14.8571429 4.64c-1.634336.00108774-3.0407053 1.15560199-3.3601565 2.75841397-.3194513 1.60281197.5368331 3.20828843 2.0458707 3.83587173-.355789.852898-1.1901552 1.4076388-2.1142857 1.4057143h-4.57142854c-.80566843.0033773-1.59543672.2245124-2.28571429.64v-6.56c1.57433907-.55661292 2.51871096-2.16647569 2.23633792-3.81226636-.28237304-1.64579066-1.70935631-2.84879321-3.37919506-2.84879321s-3.09682203 1.20300255-3.37919506 2.84879321c-.28237304 1.64579067.66199885 3.25565344 2.23633792 3.81226636v9.5542857c-1.55394791.558845-2.48873698 2.1460258-2.2239438 3.77604.26479318 1.6300143 1.6539251 2.8396779 3.30486463 2.8778941 1.65093954.0382162 3.09455651-1.1058746 3.43448928-2.7218905.33993276-1.6160159-.52041381-3.2447508-2.04683869-3.8749007.35418662-.8490622 1.18288566-1.4030295 2.10285715-1.4057143h4.57142854c2.1544304-.0004339 4.0161411-1.5050389 4.4685715-3.6114286 1.5773284-.5359476 2.5411467-2.1281389 2.2846589-3.77417018-.2564877-1.64603128-1.6590458-2.86948928-3.3246589-2.90011552zm-11.42857147-2.28571429c.63118257 0 1.14285714.51167458 1.14285714 1.14285715s-.51167457 1.14285714-1.14285714 1.14285714-1.14285714-.51167457-1.14285714-1.14285714.51167457-1.14285715 1.14285714-1.14285715zm0 18.28571429c-.63118257 0-1.14285714-.5116746-1.14285714-1.1428571 0-.6311826.51167457-1.1428572 1.14285714-1.1428572s1.14285714.5116746 1.14285714 1.1428572c0 .6311825-.51167457 1.1428571-1.14285714 1.1428571zm11.42857147-11.42857143c-.6311826 0-1.1428572-.51167457-1.1428572-1.14285714s.5116746-1.14285714 1.1428572-1.14285714c.6311825 0 1.1428571.51167457 1.1428571 1.14285714s-.5116746 1.14285714-1.1428571 1.14285714z" fill="#fff" fill-rule="nonzero" transform="translate(11 8)"/></g></svg>

<?xml version="1.0" encoding="UTF-8"?>
<svg width="40px" height="40px" viewBox="0 0 40 40" version="1.1" xmlns="http://www.w3.org/2000/svg" xmlns:xlink="http://www.w3.org/1999/xlink">
    <!-- Generator: Sketch 52.6 (67491) - http://www.bohemiancoding.com/sketch -->
    <title>Group 55</title>
    <desc>Created with Sketch.</desc>
    <g id="Website" stroke="none" stroke-width="1" fill="none" fill-rule="evenodd">
        <g id="6--Pricing" transform="translate(-582.000000, -1726.000000)">
            <g id="Group-55" transform="translate(582.000000, 1726.000000)">
                <rect id="Rectangle" fill="#1C3C55" x="0" y="0" width="40" height="40" rx="7"></rect>
                <g id="code-branch" transform="translate(11.000000, 8.000000)" fill="#FFFFFF" fill-rule="nonzero">
                    <path d="M14.8571429,4.64 C13.2228069,4.64108774 11.8164376,5.79560199 11.4969864,7.39841397 C11.1775351,9.00122594 12.0338195,10.6067024 13.5428571,11.2342857 C13.1870681,12.0871837 12.3527019,12.6419245 11.4285714,12.64 L6.85714286,12.64 C6.05147443,12.6433773 5.26170614,12.8645124 4.57142857,13.28 L4.57142857,6.72 C6.14576764,6.16338708 7.09013953,4.55352431 6.80776649,2.90773364 C6.52539345,1.26194298 5.09841018,0.0589404289 3.42857143,0.0589404289 C1.75873268,0.0589404289 0.331749403,1.26194298 0.0493763669,2.90773364 C-0.232996669,4.55352431 0.711375217,6.16338708 2.28571429,6.72 L2.28571429,16.2742857 C0.731766377,16.8331307 -0.203022685,18.4203115 0.0617704944,20.0503257 C0.326563673,21.68034 1.71569559,22.8900036 3.36663512,22.9282198 C5.01757466,22.966436 6.46119163,21.8223452 6.8011244,20.2063293 C7.14105716,18.5903134 6.28071059,16.9615785 4.75428571,16.3314286 C5.10847233,15.4823664 5.93717137,14.9283991 6.85714286,14.9257143 L11.4285714,14.9257143 C13.5830018,14.9252804 15.4447125,13.4206754 15.8971429,11.3142857 C17.4744713,10.7783381 18.4382896,9.1861468 18.1818018,7.54011552 C17.9253141,5.89408424 16.522756,4.67062624 14.8571429,4.64 Z M3.42857143,2.35428571 C4.059754,2.35428571 4.57142857,2.86596029 4.57142857,3.49714286 C4.57142857,4.12832543 4.059754,4.64 3.42857143,4.64 C2.79738886,4.64 2.28571429,4.12832543 2.28571429,3.49714286 C2.28571429,2.86596029 2.79738886,2.35428571 3.42857143,2.35428571 Z M3.42857143,20.64 C2.79738886,20.64 2.28571429,20.1283254 2.28571429,19.4971429 C2.28571429,18.8659603 2.79738886,18.3542857 3.42857143,18.3542857 C4.059754,18.3542857 4.57142857,18.8659603 4.57142857,19.4971429 C4.57142857,20.1283254 4.059754,20.64 3.42857143,20.64 Z M14.8571429,9.21142857 C14.2259603,9.21142857 13.7142857,8.699754 13.7142857,8.06857143 C13.7142857,7.43738886 14.2259603,6.92571429 14.8571429,6.92571429 C15.4883254,6.92571429 16,7.43738886 16,8.06857143 C16,8.699754 15.4883254,9.21142857 14.8571429,9.21142857 Z" id="Shape"></path>
                </g>
            </g>
        </g>
    </g>
</svg>
